Point/img/best2.svg

<svg width="120" height="129" viewBox="0 0 120 129" fill="none" xmlns="http://www.w3.org/2000/svg">
<path fill-rule="evenodd" clip-rule="evenodd" d="M70.838 2.45555C56.3698 1.01031 29.2743 -3.27122 17.2203 4.65562C5.05884 12.6531 2.78466 28.0242 0.439934 42.1333C-1.66564 54.8033 4.29472 66.6164 7.57549 79.0472C11.1396 92.5515 3.74394 109.959 14.0893 119.596C24.8846 129.652 51.4374 129.055 66.2198 126.963C80.1663 124.99 84.661 115.012 96.2221 107.162C108.115 99.0869 111.859 109.349 116.162 95.8643C120.469 82.3694 122.03 57.6053 116.162 44.681C111.038 33.3946 108.638 20.5876 98.863 12.7359C88.7574 4.61845 83.8682 3.75717 70.838 2.45555Z" fill="#C5CBF1"/>
<path d="M43.139 52.7253C43.139 51.454 43.644 50.2349 44.5429 49.336C45.4418 48.4371 46.661 47.9321 47.9323 47.9321H71.8983C73.1696 47.9321 74.3887 48.4371 75.2876 49.336C76.1865 50.2349 76.6915 51.454 76.6915 52.7253V76.6913C76.6915 77.9626 76.1865 79.1818 75.2876 80.0807C74.3887 80.9796 73.1696 81.4846 71.8983 81.4846H47.9323C46.661 81.4846 45.4418 80.9796 44.5429 80.0807C43.644 79.1818 43.139 77.9626 43.139 76.6913V52.7253Z" stroke="#00325A" stroke-width="4.79321" stroke-linecap="round" stroke-linejoin="round"/>
<path d="M52.7253 88.6744H67.105" stroke="#00325A" stroke-width="4.79321" stroke-linecap="round" stroke-linejoin="round"/>
<path d="M52.7253 40.7422H67.105" stroke="#00325A" stroke-width="4.79321" stroke-linecap="round" stroke-linejoin="round"/>
<path d="M61.1135 57.5185L56.3203 64.7083H63.5101L58.7169 71.8981" stroke="#00325A" stroke-width="4.79321" stroke-linecap="round" stroke-linejoin="round"/>
</svg>

<svg width="120" height="129" fill="none" xmlns="http://www.w3.org/2000/svg"><path fill-rule="evenodd" clip-rule="evenodd" d="M70.838 2.456C56.37 1.01 29.274-3.271 17.22 4.656 5.06 12.653 2.785 28.024.44 42.133c-2.106 12.67 3.855 24.483 7.135 36.914 3.565 13.505-3.831 30.912 6.514 40.549 10.796 10.056 37.348 9.459 52.13 7.367 13.947-1.973 18.442-11.951 30.003-19.801 11.893-8.075 15.637 2.187 19.94-11.298 4.307-13.495 5.868-38.259 0-51.183-5.124-11.286-7.524-24.093-17.299-31.945-10.106-8.118-14.995-8.979-28.025-10.28z" fill="#C5CBF1"/><path d="M43.139 52.725a4.793 4.793 0 014.793-4.793h23.966a4.793 4.793 0 014.794 4.793v23.966a4.793 4.793 0 01-4.794 4.794H47.932a4.793 4.793 0 01-4.793-4.794V52.725zm9.586 35.949h14.38m-14.38-47.932h14.38" stroke="#00325A" stroke-width="4.793" stroke-linecap="round" stroke-linejoin="round"/><path d="M61.114 57.519l-4.794 7.19h7.19l-4.793 7.19" stroke="#00325A" stroke-width="4.793" stroke-linecap="round" stroke-linejoin="round"/></svg>
